frontend/mahvie-fe/src/assets/images/info.svg

<svg width="30" height="30" fill="none" xmlns="http://www.w3.org/2000/svg"><path d="M15 0C6.72 0 0 6.72 0 15c0 8.28 6.72 15 15 15 8.28 0 15-6.72 15-15 0-8.28-6.72-15-15-15zm1.5 22.5h-3v-9h3v9zm0-12h-3v-3h3v3z" fill="#2B5D8C"/></svg>

<svg width="30" height="30" viewBox="0 0 30 30" fill="none" xmlns="http://www.w3.org/2000/svg">
<path d="M15 0C6.72 0 0 6.72 0 15C0 23.28 6.72 30 15 30C23.28 30 30 23.28 30 15C30 6.72 23.28 0 15 0ZM16.5 22.5H13.5V13.5H16.5V22.5ZM16.5 10.5H13.5V7.5H16.5V10.5Z" fill="#2B5D8C"/>
</svg>
